icons/svg/dice.svg

﻿<?xml version="1.0" encoding="utf-8"?>
<!DOCTYPE svg PUBLIC "-//W3C//DTD SVG 1.1//EN" "http://www.w3.org/Graphics/SVG/1.1/DTD/svg11.dtd">
<svg xmlns="http://www.w3.org/2000/svg" xmlns:xlink="http://www.w3.org/1999/xlink" version="1.1" baseProfile="full" width="24" height="24" viewBox="0 0 24.00 24.00" enable-background="new 0 0 24.00 24.00" xml:space="preserve">
	<path fill="#000000" fill-opacity="1" stroke-width="0.2" stroke-linejoin="round" d="M 21,16.5C 21,16.8812 20.7867,17.2125 20.473,17.3813L 12.5664,21.8243C 12.4054,21.9351 12.2103,22 12,22C 11.7897,22 11.5946,21.9351 11.4336,21.8242L 3.52716,17.3814C 3.21335,17.2127 3.00001,16.8812 3.00001,16.5L 3,7.5C 3,7.11875 3.21335,6.78734 3.52716,6.61863L 11.4336,2.17575C 11.5946,2.0649 11.7897,2 12,2C 12.2103,2 12.4054,2.06489 12.5664,2.17573L 20.473,6.61872C 20.7867,6.78745 21,7.11882 21,7.5L 21,16.5 Z M 5.5,14.316C 4.94771,14.0034 4.5,14.1977 4.5,14.75C 4.5,15.3023 4.94771,16.0034 5.5,16.316C 6.05228,16.6285 6.5,16.4342 6.5,15.8819C 6.5,15.3296 6.05228,14.6285 5.5,14.316 Z M 5.49999,10.316C 4.94771,10.0034 4.5,10.1977 4.5,10.75C 4.5,11.3023 4.94771,12.0034 5.49999,12.316C 6.05228,12.6285 6.49999,12.4342 6.49999,11.8819C 6.49999,11.3296 6.05228,10.6285 5.49999,10.316 Z M 9.5,16.5798C 8.94771,16.2672 8.5,16.4615 8.5,17.0138C 8.5,17.5661 8.94771,18.2672 9.5,18.5798C 10.0523,18.8923 10.5,18.698 10.5,18.1457C 10.5,17.5935 10.0523,16.8924 9.5,16.5798 Z M 7.5,13.4479C 6.94771,13.1353 6.5,13.3296 6.5,13.8819C 6.5,14.4342 6.94771,15.1353 7.5,15.4479C 8.05228,15.7604 8.5,15.5661 8.5,15.0138C 8.5,14.4615 8.05228,13.7604 7.5,13.4479 Z M 9.5,12.5798C 8.94771,12.2672 8.5,12.4615 8.5,13.0138C 8.5,13.5661 8.94771,14.2672 9.5,14.5798C 10.0523,14.8924 10.5,14.698 10.5,14.1457C 10.5,13.5935 10.0523,12.8924 9.5,12.5798 Z M 18.5,14.316C 17.9477,14.6285 17.5,15.3296 17.5,15.8819C 17.5,16.4342 17.9477,16.6285 18.5,16.316C 19.0523,16.0034 19.5,15.3023 19.5,14.75C 19.5,14.1977 19.0523,14.0034 18.5,14.316 Z M 18.5,10.316C 17.9477,10.6285 17.5,11.3296 17.5,11.8819C 17.5,12.4342 17.9477,12.6285 18.5,12.316C 19.0523,12.0034 19.5,11.3023 19.5,10.75C 19.5,10.1977 19.0523,10.0034 18.5,10.316 Z M 14.5,16.5798C 13.9477,16.8924 13.5,17.5935 13.5,18.1457C 13.5,18.698 13.9477,18.8924 14.5,18.5798C 15.0523,18.2672 15.5,17.5661 15.5,17.0138C 15.5,16.4615 15.0523,16.2672 14.5,16.5798 Z M 14.5,12.5798C 13.9477,12.8924 13.5,13.5935 13.5,14.1457C 13.5,14.698 13.9477,14.8924 14.5,14.5798C 15.0523,14.2672 15.5,13.5661 15.5,13.0138C 15.5,12.4616 15.0523,12.2672 14.5,12.5798 Z M 16.4919,7.77087C 17.0387,7.44886 17.0943,6.96396 16.616,6.68782C 16.1377,6.41168 15.3067,6.44886 14.7599,6.77087C 14.213,7.09288 14.1575,7.57778 14.6358,7.85392C 15.114,8.13006 15.9451,8.09288 16.4919,7.77087 Z M 9.06728,8.10307C 9.61412,7.78106 9.66968,7.29616 9.19139,7.02002C 8.7131,6.74388 7.88207,6.78106 7.33523,7.10307C 6.7884,7.42507 6.73284,7.90997 7.21113,8.18611C 7.68942,8.46225 8.52045,8.42507 9.06728,8.10307 Z M 12.7796,7.93697C 13.3264,7.61496 13.382,7.13006 12.9037,6.85392C 12.4254,6.57778 11.5944,6.61496 11.0475,6.93697C 10.5007,7.25898 10.4451,7.74388 10.9234,8.02002C 11.4017,8.29616 12.2328,8.25898 12.7796,7.93697 Z "/>
</svg>

<svg xmlns="http://www.w3.org/2000/svg" version="1.1" baseProfile="full" width="24" height="24" viewBox="0 0 24.00 24.00" xml:space="preserve"><path fill="#000" fill-opacity="1" stroke-width=".2" stroke-linejoin="round" d="M21 16.5c0 .38-.213.712-.527.88l-7.907 4.444c-.16.11-.356.176-.566.176-.21 0-.405-.065-.566-.176L3.527 17.38c-.314-.167-.527-.5-.527-.88v-9c0-.38.213-.713.527-.88l7.907-4.444c.16-.11.356-.176.566-.176.21 0 .405.065.566.176l7.907 4.443c.314.167.527.5.527.88v9zM5.5 14.316c-.552-.313-1-.118-1 .434s.448 1.253 1 1.566c.552.313 1 .118 1-.434s-.448-1.253-1-1.566zm0-4c-.552-.313-1-.118-1 .434s.448 1.253 1 1.566c.552.313 1 .118 1-.434s-.448-1.253-1-1.566zm4 6.264c-.552-.313-1-.118-1 .434s.448 1.253 1 1.566c.552.312 1 .118 1-.434 0-.553-.448-1.254-1-1.566zm-2-3.132c-.552-.313-1-.118-1 .434s.448 1.253 1 1.566c.552.312 1 .118 1-.434 0-.553-.448-1.254-1-1.566zm2-.868c-.552-.313-1-.12-1 .434 0 .552.448 1.253 1 1.566.552.312 1 .118 1-.434 0-.553-.448-1.254-1-1.566zm9 1.736c-.552.313-1 1.014-1 1.566s.448.746 1 .434c.552-.313 1-1.014 1-1.566s-.448-.747-1-.434zm0-4c-.552.313-1 1.014-1 1.566s.448.747 1 .434 1-1.014 1-1.566-.448-.747-1-.434zm-4 6.264c-.552.312-1 1.014-1 1.566s.448.746 1 .434c.552-.313 1-1.014 1-1.566s-.448-.747-1-.434zm0-4c-.552.312-1 1.014-1 1.566s.448.746 1 .434c.552-.313 1-1.014 1-1.566s-.448-.747-1-.434zm1.992-4.81c.547-.32.602-.806.124-1.082s-1.31-.24-1.856.083c-.547.323-.602.808-.124 1.084s1.31.24 1.856-.083zm-7.425.333c.547-.322.603-.807.124-1.083-.477-.276-1.308-.24-1.855.083-.547.322-.602.807-.124 1.083.48.276 1.31.24 1.857-.083zm3.713-.166c.546-.322.602-.807.124-1.083-.48-.276-1.31-.24-1.857.083-.546.322-.602.807-.124 1.083.48.276 1.31.24 1.857-.083z"/></svg>
